!!!!SEGMENT: pl-wtm--a-43-196-99--001-010_kazuro-stanislaw--25-piesni-dzieciecych-z-fortepianem-op-49-misie.krn
!!!cenid: 19xx:206
!!!COM: Kazuro, Stanisław
!!!COM-rismID: pe50047136
!!!CDT: 1881/08/02-1961/11/30
!!!CNT: Polish
!!!GTL: 25 Pieśni dziecięcych z fortepianem, op. 49
!!!OTL: Misie
!!!OMV: 010
!!!PDT: 1950
!!!AGN:
!!!YEC: Copyright 2022 Narodowy Instytut Fryderyka Chopina (https://polishscores.org)
!!!YEM: License CC-BY-4.0 (https://creativecommons.org/licenses/by/4.0)
!!!SMS-siglum: PL-Wtm
!!!SMS-shelfmark: A-43.196/99
!!!SMS-variant:
!!!SMS-altvar:
!!!SMS-shelfwork: 001-010 G
!!!NIFC-rismSourceID: 1001164821
!!!NIFC-rismChildID: 1001164821
!!!NIFC-islandoraID: pl-wtm:43198
!!!URL-pdf-islandora: https://repozytorium.nifc.pl/islandora/object/pl-wtm:43198/datastream/PDF/view
!!!URL-scan: https://polish.musicsources.pl/pl/lokalizacje/galeria/druki-muzyczne/22428/12 @EN{Scan on Polish Music Sources Website} @PL{Skany w portalu Dziedzictwo Muzyki Polskiej w otwartym dostępie}
!!!IIIF:
!!!ONB-nifc:
!!!AIN: 1 canto 1 piano
!!!key: G
**kern	**text	**kern	**text	**dynam	**kern	**text	**dynam
*part2	*part2	*part2	*part2	*part2	*part1	*part1	*part1
*staff3	*staff3	*staff2	*staff2	*staff2/3	*staff1	*staff1	*
*IGacmp	*	*IGacmp	*	*	*	*	*
*ICklav	*	*ICklav	*	*	*ICvox	*	*
*Ipiano	*	*Ipiano	*	*	*Icanto	*	*
*I"	*	*I"	*	*	*I"	*	*
*I'	*	*I'	*	*	*I'	*	*
*clefF4	*	*clefG2	*	*	*clefG2	*	*
*k[f#]	*	*k[f#]	*	*	*k[f#]	*	*
*G:	*	*G:	*	*	*G:	*	*
*M4/4	*	*M4/4	*	*	*M4/4	*	*
*met(c)	*	*met(c)	*	*	*met(c)	*	*
=1	=1	=1	=1	=1	=1	=1	=1
!!LO:TX:t=P:problem:oddech zapisany jako v
!!LO:TX:t=P:problem:błąd wyświetlania dynamiki w partii pfte (zgłoszony J.I.)
!!LO:TX:a:B:t=Con moto.
!	!	!	!	!	!LO:TX:t=P:problem:zapis dla tekstu mówionego uzgodniony z J.I.	!	!
!	!	!	!	!	!LO:N:head=x:xstem	!	!
4r	.	4dd\	Człap,	.	4g/	Człap,	.
!	!	!	!	!	!LO:N:head=x:xstem	!	!
8r	.	4dd\	Człap,	.	4g/	człap,	.
8qG#X/	.	.	.	.	.	.	.
4A\	Hop,	.	.	.	.	.	.
!	!	!	!	!	!LO:N:head=x:xstem	!	!
.	.	4dd\	Człap,	.	4g/	człap,	.
4A#X\	hop,	.	.	.	.	.	.
!	!	!	!	!	!LO:N:head=x:xstem	!	!
.	.	4dd\	Człap,	.	4g/	człap,	.
8B\	hop,	.	.	.	.	.	.
=2	=2	=2	=2	=2	=2	=2	=2
*	*	*^	*	*	*	*	*
!	!	!	!	!	!	!LO:N:head=x:xstem	!	!
4r	.	4dd/	4cc\	hop,	.	4g/	człap,	.
!	!	!	!	!	!	!LO:N:head=x:xstem	!	!
8r	.	4dd/	4cc\	hop,	.	4g/	człap,	.
8qF#/	.	.	.	.	.	.	.	.
4Gn\	człap,	.	.	.	.	.	.	.
!	!	!	!	!	!	!LO:N:head=x:xstem	!	!
.	.	4dd/	4cc\	hop,	.	4g/	człap,	.
4G#X\	człap,	.	.	.	.	.	.	.
!	!	!	!	!	!	!LO:N:head=x:xstem	!	!
.	.	4dd/	4cc\	hop.	.	4g/	człap,	.
8An\	człap,	.	.	.	.	.	.	.
=3	=3	=3	=3	=3	=3	=3	=3	=3
!	!	!	!	!	!	!LO:N:head=x:xstem	!	!
8r	.	2dd/	4a#X 4f#\	wi-	.	4b\	Wi-	.
8d\	.	.	.	.	.	.	.	.
!	!	!	!	!	!	!LO:N:head=x:xstem	!	!
8d#X\L	.	.	4an 4fn\	-śta,	.	4b\	-śta,	.
8B\J	.	.	.	.	.	.	.	.
!	!	!	!	!	!	!LO:N:head=x:xstem	!	!
4G\	He-	2e#X/	2d#X 2B\	no,	.	4cc\	He-	.
!LO:TX:B:a:t=*:Można rozbić na partje bez melodji.:footnote	!	!	!	!	!	!LO:N:head=x:xstem	!	!
4C#X/	-tta!	.	.	.	.	4cc\	-ta,	.
!!LO:LB:g=original
=4	=4	=4	=4	=4	=4	=4	=4	=4
*^	*	*	*	*	*	*	*	*
!	!	!	!	!	!	!	!LO:N:head=x:xstem	!	!
!	!	!	!	!	!	!	!LO:N:vis=8	!	!
2D;/	2D\	.	2f#;,/	2dn 2A\	Prrrrrrr!	.	2b;,\	Prrrrrrr!	.
!	!	!	!	!	!	!	!LO:TX:t=P:problem:strzałka zamiast gliss.	!	!
!	!	!	!	!	!	!	!LO:N:head=x:xstem	!	!
!	!	!	!	!	!	!	!LO:N:vis=8	!	!
2r	2ryy	.	2dd^\	2ryy	Wio!	.	2b\H	Wio!	.
=5	=5	=5	=5	=5	=5	=5	=5	=5	=5
!	!	!	!	!	!	!LO:DY:b	!	!	!LO:DY:a:rj
2B-X/	2G\	.	2dd/	4dd\	.	mp	8dd\h	Ja-	mp
.	.	.	.	.	.	.	8dd\	-dą,	.
.	.	.	.	4cc\	.	.	8cc\	ja-	.
.	.	.	.	.	.	.	8cc\	-dą	.
4e/	4F#\	.	[2dd/	4b-X\	.	.	4b-X\	Mi-	.
4e-X/	4Fn\	.	.	4a\	.	.	4a/	-sie,	.
=6	=6	=6	=6	=6	=6	=6	=6	=6	=6
4c/	2E-X\	.	2dd/]	4g\	.	.	8g/	śmie-	.
.	.	.	.	.	.	.	8g/	-ją	.
4G/	.	.	.	4fn\	.	.	8fn/	im	.
.	.	.	.	.	.	.	8f/	się	.
!	!	!	!LO:TX:b:i:t=rit.	!	!	!	!	!	!
2F#;/	2D;\	.	2dd;/	4e-X\	.	.	4e-X/	py-	.
.	.	.	.	4d;\	.	.	4d;/	-sie.	.
*v	*v	*	*	*	*	*	*	*	*
*	*	*v	*v	*	*	*	*	*
!!LO:LB:g=original
=7||	=7||	=7||	=7||	=7||	=7||	=7||	=7||
*M3/4	*	*M3/4	*	*	*M3/4	*	*
*^	*	*^	*	*	*	*	*
!!LO:TX:a:B:t=Piu mosso.:mod=Più mosso
!	!	!	!	!	!	!	!	!	!LO:DY:a
4D/	4GG\	.	8.b/L	4g\	.	mf	8.b\	Przy-	mf
.	.	.	16cc/Jk	.	.	.	16cc\	-je-	.
4G/	4C\	.	4dd/	4b-X\	.	.	4dd\	-cha-	.
4C#X/	4FF#\	.	4ee/	4a 4e\	.	.	4ee\	-ły	.
=8	=8	=8	=8	=8	=8	=8	=8	=8	=8
4E/	4AA\	.	8.ff#/L	4ee 4cc\	.	.	4cc\	do	.
.	.	.	16aa/Jk	.	.	.	.	.	.
4d 4G\	2ryy	.	8.ee/L	4cc 4a\	.	.	4a/	la-	.
.	.	.	16ff#/Jk	.	.	.	.	.	.
8A\L	.	.	4cc 4e/	4f#\	.	.	4e/	-su,	.
8G#X\J	.	.	.	.	.	.	.	.	.
=9	=9	=9	=9	=9	=9	=9	=9	=9	=9
4A/	4D\	.	8.f#/L	4e 4c\	.	.	8.f#/	na-	.
.	.	.	16g/Jk	.	.	.	16g/	-ro-	.
4B/	2ryy	.	4a/	2g 2d#X\	.	.	4a/	-bi-	.
4A/	.	.	4b/	.	.	.	4b\	-ły	.
=10	=10	=10	=10	=10	=10	=10	=10	=10	=10
4BB 4EE/	2ryy	.	8.bL 8.e/	2ryy	.	.	4g/	ha-	.
.	.	.	16gJk 16c/	.	.	.	.	.	.
4E 4AA/	.	.	8.ddL 8.g\	.	.	.	4b\	-ła-	.
.	.	.	16bJk 16e\	.	.	.	.	.	.
4F#/	4D\	.	8ee/L	4cc 4f#\	.	.	4cc\	-su,	.
.	.	.	8ee-X/J	.	.	.	.	.	.
*v	*v	*	*	*	*	*	*	*	*
*	*	*v	*v	*	*	*	*	*
!!LO:PB:g=original
=11	=11	=11	=11	=11	=11	=11	=11
!	!	!	!	!	!	!	!LO:DY:a
4D 4GG/	.	8.ddL 8.b-X 8.f#\	.	f	8.dd\	Przy-	f
!!LO:TX:a:B:t=Allegro.
.	.	16eeJk 16cc 16g#X\	.	.	16ee\	-je-	.
4C#X 4FF#/	.	4.ff# 4.dd 4.b-X\	.	.	4.ff#\	-cha-	.
4e 4A#X 4F#\	.	.	.	.	.	.	.
.	.	8ee 8cc\	.	.	8ee\	-ły	.
=12	=12	=12	=12	=12	=12	=12	=12
*^	*	*^	*	*	*	*	*
8.dL 8.B\	4ryy	.	8.ddL 8.f#/	4ryy	.	.	(8.dd\L	do	.
16A#XJk 16F#\	.	.	16cc#XJk 16e/	.	.	.	16cc#X\Jk)	.	.
4G#X/	4E\	.	4b/	2d\	.	.	4b\	dwo-	.
4F#/	4BB\	.	4a/	.	.	.	4dd\	-ru,	.
=13	=13	=13	=13	=13	=13	=13	=13	=13	=13
!	!	!	!	!	!	!	!	!	!LO:DY:a
4E/	4AA\	.	8b/L	2.c\	.	mf	8ee\	na-	mf
.	.	.	8g/J	.	.	.	8b\	-ro-	.
4E-X/	4AA-X\	.	4.ccn 4.f#/	.	.	.	4ccn\	-bi-	.
4F#/	4D\	.	.	.	.	.	4g#X/	-ły	.
.	.	.	8g#X 8e 8B-X/	.	.	.	.	.	.
=14	=14	=14	=14	=14	=14	=14	=14	=14	=14
4D 4GG/	2ryy	.	8aL 8e/	2c\	.	.	(8a/L	ru-	.
.	.	.	8b/J	.	.	.	8e/J)	.	.
32DD/LLL	.	.	4a#X 4f#/	.	.	.	4f#/	-mo-	.
32CC#X/	.	.	.	.	.	.	.	.	.
32DD/	.	.	.	.	.	.	.	.	.
32CC#/J	.	.	.	.	.	.	.	.	.
32DD/L	.	.	.	.	.	.	.	.	.
32CC#/	.	.	.	.	.	.	.	.	.
32DD/	.	.	.	.	.	.	.	.	.
32CC#/JJJ	.	.	.	.	.	.	.	.	.
4F#;/	4DD;\	.	4d;/	4c\	.	.	4d;,/	-ru.	.
*v	*v	*	*	*	*	*	*	*	*
*	*	*v	*v	*	*	*	*	*
!!LO:LB:g=original
=15||	=15||	=15||	=15||	=15||	=15||	=15||	=15||
*M4/4	*	*M4/4	*	*	*M4/4	*	*
*met(c)	*	*met(c)	*	*	*met(c)	*	*
*	*	*^	*	*	*	*	*
!!LO:TX:a:B:t=Meno mosso.
!	!	!	!	!	!	!	!	!LO:HP:a
!	!	!	!	!	!	!	!	!LO:DY:a
2B 2D 2GG\	.	(4d/	2.d\	.	mp <	8d/	Przy-	mp <
.	.	.	.	.	.	8d/	-je-	.
.	.	4e/	.	.	.	8e/	-cha-	.
.	.	.	.	.	.	8e/	-ły	.
4A#X\	.	4f#/	.	.	.	8f#/	w ko-	.
.	.	.	.	.	.	8f#/	-ni	.
4B\	.	4g/)	4d#X\	.	[[	4g/	sześć	[[
=16	=16	=16	=16	=16	=16	=16	=16	=16
*^	*	*	*	*	*	*	*	*
!	!	!	!	!	!	!	!	!	!LO:HP:a
!	!	!	!	!	!	!	!	!	!LO:DY:a
8c#X`\L	2ryy	.	4a/	4f#\	.	mf <	8a/	i	mf <
8d`\J	.	.	.	.	.	.	8a/	wo-	.
8d#X`\L	.	.	4b/	4g\	.	.	8b\	-ła-	.
8e`\J	.	.	.	.	.	.	8b\	-ją:	.
4d#X/	[2A\	.	2cc#X^/	2f#X\	.	.	4cc#X^\	Daj-	[
!	!	!	!LO:TX:b:i:t=rit.	!	!	!	!LO:TX:a:i:t=rit.	!	!
4c#/	.	.	.	.	.	[[	4cc#^\	-cie	.
=17	=17	=17	=17	=17	=17	=17	=17	=17	=17
!	!	!	!	!	!	!	!	!	!LO:DY:a
1cn	2A\]	.	1dd	1f#	.	ff	2.dd^\	jeść!	ff
.	2D\	.	.	.	.	.	.	.	.
.	.	.	.	.	.	.	4r	.	.
*v	*v	*	*	*	*	*	*	*	*
*	*	*v	*v	*	*	*	*	*
!!LO:LB:g=original
=18||	=18||	=18||	=18||	=18||	=18||	=18||	=18||
*M3/4	*	*M3/4	*	*	*M3/4	*	*
*	*	*^	*	*	*	*	*
!!LO:TX:a:B:t=Più mosso.:mod=Più mosso
!	!	!	!	!	!	!	!	!LO:DY:a
4D 4GG/	.	8.b/L	4g\	.	mf	8.b\	A	mf
.	.	16cc/Jk	.	.	.	16cc\	Mi-	.
4G 4C\	.	4dd/	4b-X\	.	.	4dd\	-sio-	.
4C#X 4FF#/	.	4ee/	4a 4e\	.	.	4ee\	-wa	.
=19	=19	=19	=19	=19	=19	=19	=19	=19
4E 4AA/	.	8.ff#/L	4ee 4ccn\	.	.	4cc\	jak	.
.	.	16aa/Jk	.	.	.	.	.	.
4d 4G\	.	8.ee/L	4cc 4a\	.	.	4a/	mo-	.
.	.	16ff#/Jk	.	.	.	.	.	.
8A\L	.	4cc 4e/	4f#\	.	.	4e/	-że	.
8G#X\J	.	.	.	.	.	.	.	.
=20	=20	=20	=20	=20	=20	=20	=20	=20
*^	*	*	*	*	*	*	*	*
4A/	4D\	.	8.f#/L	4e 4c\	.	.	8.f#/	prę-	.
.	.	.	16g/Jk	.	.	.	16g/	-dko	.
(>4B/	2ryy	.	(4a/	2g 2d#X\	.	.	4a/	szu-	.
4A/)	.	.	4b/)	.	.	.	4b\	-ka	.
=21	=21	=21	=21	=21	=21	=21	=21	=21	=21
4BB 4EE/	2ryy	.	8.bL 8.e/	2ryy	.	.	4g/	w ko-	.
.	.	.	16gJk 16c/	.	.	.	.	.	.
4E 4AA/	.	.	8.ddL 8.g/	.	.	.	4b\	-mo-	.
.	.	.	16bJk 16e/	.	.	.	.	.	.
4F#/	4D\	.	8.ee/L	4cc 4f#\	.	.	4cc\	-rze.	.
.	.	.	16ee-X/Jk	.	.	.	.	.	.
*v	*v	*	*	*	*	*	*	*	*
*	*	*v	*v	*	*	*	*	*
!!LO:PB:g=original
=22	=22	=22	=22	=22	=22	=22	=22
!	!	!	!	!	!	!	!LO:DY:a
4D 4GG/	.	8.ddL 8.b-X 8.f#\	.	f	8.dd\	Pla-	f
!!LO:TX:a:B:t=Allegro.
.	.	16eeJk 16cc 16g#X\	.	.	16ee\	-ster	.
4C#X 4FF#/	.	4.ff# 4.dd 4.b-X\	.	.	4.ff#\	mio-	.
4e 4A#X 4F#\	.	.	.	.	.	.	.
.	.	8ee 8cc\	.	.	8ee\	-du	.
=23	=23	=23	=23	=23	=23	=23	=23
*	*	*^	*	*	*	*	*
8.dL 8.B\	.	8.ddL 8.f#/	4ryy	.	.	8.dd\L	wy-	.
16A#XJk 16F#\	.	16cc#XJk 16e/	.	.	.	16cc#X\Jk	.	.
4G#X 4E\	.	4b/	2d\	.	.	4b\	-no-	.
4F# 4BB\	.	4an/	.	.	.	4dd\	-si,	.
=24	=24	=24	=24	=24	=24	=24	=24	=24
!	!	!	!	!	!	!	!	!LO:DY:a
4E 4AA/	.	8b/L	2c\	.	f	8ee\	pię-	f
.	.	8g/J	.	.	.	8b\	-knie	.
4E-X 4AA-X/	.	4.ccn 4.f#/	.	.	.	4ccn\	go-	.
4F# 4D\	.	.	4ryy	.	.	4g#X/	-ści	.
.	.	8g#X 8e 8c/	.	.	.	.	.	.
=25	=25	=25	=25	=25	=25	=25	=25	=25
*^	*	*	*	*	*	*	*	*
4D 4GG/	4ryy	.	8aL 8e/	2.c;\	.	.	(8a/L	swych	.
.	.	.	8b/J	.	.	.	8e/J)	.	.
2F# 2DD;;/	2ryy	.	4a#X 4f#/	.	.	.	4f#/	pro-	.
.	.	.	4d;/	.	.	.	4d;/	-si.	.
*v	*v	*	*	*	*	*	*	*	*
*	*	*v	*v	*	*	*	*	*
!!LO:LB:g=original
=26||	=26||	=26||	=26||	=26||	=26||	=26||	=26||
*M4/4	*	*M4/4	*	*	*M4/4	*	*
*met(c)	*	*met(c)	*	*	*met(c)	*	*
*^	*	*^	*	*	*	*	*
!!LO:TX:a:B:t=Meno mosso.
2B-X/	2G\	.	2dd/	4dd\	.	.	8dd\	Je-	.
.	.	.	.	.	.	.	8dd\	-dzą,	.
.	.	.	.	4cc\	.	.	8cc\	je-	.
.	.	.	.	.	.	.	8cc\	-dzą	.
4e/	4F#\	.	2dd/	4b-X\	.	.	4b-X\	Mi-	.
4e-X/	4Fn\	.	.	4a\	.	.	4a/	-sie,	.
=27	=27	=27	=27	=27	=27	=27	=27	=27	=27
4c/	2E-X\	.	2dd/	4g\	.	.	8g/	śmie-	.
.	.	.	.	.	.	.	8g/	-ją	.
4G/	.	.	.	4fn\	.	.	8fn/	im	.
.	.	.	.	.	.	.	8f/	się	.
2F#/	2DD\	.	2dd/	4e-X\	.	.	(4e-X/	py-	.
.	.	.	.	4d\	.	.	4d/)	.	.
=28	=28	=28	=28	=28	=28	=28	=28	=28	=28
8qF#/	.	.	.	.	.	.	.	.	.
4G/	2GG\	.	2g/	2B\	.	.	2g/	-sie!	.
8qC#X/	.	.	.	.	.	.	.	.	.
4D/	.	.	.	.	.	.	.	.	.
2r	2GGG\	.	2r	2ryy	.	.	2r	.	.
*v	*v	*	*	*	*	*	*	*	*
*	*	*v	*v	*	*	*	*	*
==	==	==	==	==	==	==	==
*-	*-	*-	*-	*-	*-	*-	*-
!!!system-decoration: s1{(s2,s3)}
!!!RDF**kern: > = above
!!!RDF**kern: < = below
!!!RDF**kern: N = linked
!!!ENC: Andrzej Gręziak
!!!EED: Katarzyna Serwa
!!!END: 2025-03-28
!!!EEV: 2025-04-02
